Obsidian-SemiLight/actions/24s/debug-step-instruction.svg

<svg xmlns="http://www.w3.org/2000/svg" viewBox="0 0 24 24">
  <defs id="defs3051">
    <style type="text/css" id="current-color-scheme">
      .ColorScheme-Text {
        color:#4d4d4d;
      }
      .ColorScheme-NeutralText {
        color:#f67400;
      }
      </style>
  </defs>
  <path style="fill:currentColor;fill-opacity:1;stroke:none" 
     d="M 4 4 L 4 8 L 4 20 L 5 20 L 20 20 L 20 19 L 20 10 L 19 10 L 19 19 L 5 19 L 5 8 L 14 8 L 14 6 L 14 4 L 4 4 z M 10.427734 10 C 9.3616448 10 8.9140625 10.352246 8.9140625 11.253906 L 8.9140625 12.476562 C 8.9140625 13.033475 8.8935575 13.677734 8.3046875 13.677734 L 8 13.677734 L 8 14.322266 L 8.3046875 14.322266 C 8.8935775 14.322266 8.9140625 14.966527 8.9140625 15.523438 L 8.9140625 16.746094 C 8.9140625 17.647754 9.3616448 18 10.427734 18 L 10.427734 17.408203 C 9.7170148 17.408203 9.7070313 17.169044 9.7070312 16.302734 L 9.7070312 15.294922 C 9.7070312 14.879462 9.583415 14.260256 8.984375 14.003906 C 9.583415 13.747556 9.7070314 13.130314 9.7070312 12.714844 L 9.7070312 11.697266 C 9.7070312 10.830955 9.7170346 10.591797 10.427734 10.591797 L 10.427734 10 z M 12 10 C 11.446 10 11 10.446 11 11 C 11 11.554 11.446 12 12 12 C 12.554 12 13 11.554 13 11 C 13 10.446 12.554 10 12 10 z M 13.564453 10 L 13.564453 10.591797 C 14.275183 10.591797 14.292969 10.830955 14.292969 11.697266 L 14.292969 12.714844 C 14.292969 13.130314 14.416575 13.747556 15.015625 14.003906 C 14.416575 14.260256 14.292969 14.879462 14.292969 15.294922 L 14.292969 16.302734 C 14.292969 17.169044 14.275269 17.408203 13.564453 17.408203 L 13.564453 18 C 14.630553 18 15.085926 17.647754 15.085938 16.746094 L 15.085938 15.523438 C 15.085938 14.966525 15.126338 14.322266 15.705078 14.322266 L 16 14.322266 L 16 13.677734 L 15.705078 13.677734 C 15.126338 13.677734 15.085926 13.033473 15.085938 12.476562 L 15.085938 11.253906 C 15.085938 10.352247 14.630553 10 13.564453 10 z M 11 13 L 11 17 L 13 17 L 13 13 L 11 13 z "
     class="ColorScheme-Text"
     />
  <path
     style="fill:currentColor;fill-opacity:1;stroke:none" 
     class="ColorScheme-NeutralText"
     d="M 16 4 L 18 7 L 20 4 L 16 4 z "
      />
</svg>

<svg viewBox="0 0 24 24" xmlns="http://www.w3.org/2000/svg"><path d="m4 4v4 12h1 15v-1-9h-1v9h-14v-11h9v-2-2zm6.427734 6c-1.0660892 0-1.5136715.352246-1.5136715 1.253906v1.222656c0 .556913-.020505 1.201172-.609375 1.201172h-.3046875v.644532h.3046875c.58889 0 .609375.644261.609375 1.201172v1.222656c0 .90166.4475823 1.253906 1.5136715 1.253906v-.591797c-.7107192 0-.7207027-.239159-.7207028-1.105469v-1.007812c0-.41546-.1236162-1.034666-.7226562-1.291016.59904-.25635.7226564-.873592.7226562-1.289062v-1.017578c0-.866311.0100034-1.105469.7207028-1.105469zm1.572266 0c-.554 0-1 .446-1 1s.446 1 1 1 1-.446 1-1-.446-1-1-1zm1.564453 0v.591797c.71073 0 .728516.239158.728516 1.105469v1.017578c0 .41547.123606 1.032712.722656 1.289062-.59905.25635-.722656.875556-.722656 1.291016v1.007812c0 .86631-.0177 1.105469-.728516 1.105469v.591797c1.0661 0 1.521473-.352246 1.521485-1.253906v-1.222656c0-.556913.0404-1.201172.61914-1.201172h.294922v-.644532h-.294922c-.57874 0-.619152-.644261-.61914-1.201172v-1.222656c0-.901659-.455385-1.253906-1.521485-1.253906zm-2.564453 3v4h2v-4z" fill="#4d4d4d"/><path d="m16 4 2 3 2-3z" fill="#f67400"/></svg>
